packages/tokens/icons/coinStack/size24Px.svg

<svg viewBox="0 0 24 24" fill="none" xmlns="http://www.w3.org/2000/svg" width="1em" height="1em"><path d="M10.2499 13.8461V13.7497V13.7497C10.2499 13.1976 9.80233 12.75 9.2502 12.75L7.69986 12.75C7.03715 12.75 6.49993 13.2873 6.49993 13.95V13.95C6.49993 14.6127 7.03714 15.1499 7.69983 15.1499L9.19991 15.15C9.91789 15.15 10.4999 15.732 10.4999 16.45V16.45C10.4998 17.168 9.91776 17.75 9.19979 17.7499L7.69951 17.7498C7.03694 17.7498 6.49987 17.2126 6.49994 16.55V16.55V16.25" stroke="currentColor" stroke-linecap="round"/><path d="M8.49988 11.75L8.49988 18.75" stroke="currentColor" stroke-linecap="round"/><circle cx="8.5" cy="15.5" r="5" stroke="currentColor"/><path d="M20.5001 19C20.5001 20 17.6521 20.5 14.2858 20.5" stroke="currentColor" stroke-linecap="round"/><path d="M8.5 4.62598V8" stroke="currentColor" stroke-linecap="round" stroke-linejoin="round"/><path d="M20.5 19L20.5 4.5" stroke="currentColor" stroke-linecap="round"/><path d="M20.2497 4.35505C20.3552 4.41258 20.4232 4.46242 20.4645 4.5C20.4232 4.53758 20.3552 4.58742 20.2497 4.64495C19.9783 4.79301 19.5526 4.9422 18.9838 5.07346C17.8541 5.33415 16.2687 5.5 14.5 5.5C12.7313 5.5 11.1459 5.33415 10.0162 5.07346C9.44742 4.9422 9.02166 4.79301 8.75028 4.64495C8.64483 4.58742 8.57681 4.53758 8.53553 4.5C8.57681 4.46242 8.64483 4.41258 8.75028 4.35505C9.02166 4.20699 9.44742 4.0578 10.0162 3.92654C11.1459 3.66585 12.7313 3.5 14.5 3.5C16.2687 3.5 17.8541 3.66585 18.9838 3.92654C19.5526 4.0578 19.9783 4.20699 20.2497 4.35505Z" stroke="currentColor"/><path d="M20.5 8C20.5 8.78483 17.8137 9.42105 14.5 9.42105C11.1863 9.42105 8.5 8.78483 8.5 8M20.5 11.5789C20.5 12.2411 18.5878 12.7975 16 12.9552M20.5 15.5789C20.5 16.2411 18.5878 16.7975 16 16.9552" stroke="currentColor" stroke-linecap="round"/></svg>

<svg xmlns="http://www.w3.org/2000/svg" fill="none" viewBox="0 0 24 24" width="1em" height="1em"><path stroke="currentColor" stroke-linecap="round" d="M10.25 13.846v-.096 0a1 1 0 0 0-1-1H7.7a1.2 1.2 0 0 0-1.2 1.2v0a1.2 1.2 0 0 0 1.2 1.2h1.5a1.3 1.3 0 0 1 1.3 1.3v0a1.3 1.3 0 0 1-1.3 1.3H7.7a1.2 1.2 0 0 1-1.2-1.2v0-.3m2-4.5v7"/><circle cx="8.5" cy="15.5" r="5" stroke="currentColor"/><path stroke="currentColor" stroke-linecap="round" d="M20.5 19c0 1-2.848 1.5-6.214 1.5"/><path stroke="currentColor" stroke-linecap="round" stroke-linejoin="round" d="M8.5 4.626V8"/><path stroke="currentColor" stroke-linecap="round" d="M20.5 19V4.5"/><path stroke="currentColor" d="M20.25 4.355c.105.058.173.107.215.145a1.12 1.12 0 0 1-.215.145c-.272.148-.697.297-1.266.428-1.13.261-2.715.427-4.484.427-1.769 0-3.354-.166-4.484-.427-.569-.13-.994-.28-1.266-.428a1.12 1.12 0 0 1-.214-.145 1.12 1.12 0 0 1 .214-.145c.272-.148.697-.297 1.266-.428 1.13-.261 2.715-.427 4.484-.427 1.769 0 3.354.166 4.484.427.569.13.994.28 1.266.428Z"/><path stroke="currentColor" stroke-linecap="round" d="M20.5 8c0 .785-2.686 1.421-6 1.421s-6-.636-6-1.421m12 3.579c0 .662-1.912 1.218-4.5 1.376m4.5 2.624c0 .662-1.912 1.218-4.5 1.376"/></svg>
